src/assets/icons/help.svg

<svg width="24" height="24" viewBox="0 0 24 24" fill="none" xmlns="http://www.w3.org/2000/svg">
<circle opacity="0.2" cx="12" cy="12" r="11.5" stroke="#111111"/>
<path opacity="0.4" d="M12.094 5.94043C13.342 5.94043 14.344 6.21643 15.1 6.76843C15.868 7.30843 16.252 8.07043 16.252 9.05443C16.252 10.0744 15.94 10.8604 15.316 11.4124C14.692 11.9644 13.87 12.2944 12.85 12.4024L12.796 14.2204H10.96L10.924 11.5024C12.1 11.3584 12.94 11.1184 13.444 10.7824C13.948 10.4344 14.2 9.94843 14.2 9.32443C14.2 8.79643 14.008 8.38243 13.624 8.08243C13.252 7.78243 12.7 7.63243 11.968 7.63243C11.248 7.63243 10.666 7.83043 10.222 8.22643C9.77802 8.62243 9.52002 9.17443 9.44802 9.88243L7.66602 9.03643C7.85802 8.10043 8.33202 7.35043 9.08802 6.78643C9.85602 6.22243 10.858 5.94043 12.094 5.94043ZM11.878 15.6064C12.286 15.6064 12.61 15.7264 12.85 15.9664C13.09 16.1944 13.21 16.5004 13.21 16.8844C13.21 17.2804 13.09 17.5924 12.85 17.8204C12.61 18.0484 12.286 18.1624 11.878 18.1624C11.458 18.1624 11.128 18.0484 10.888 17.8204C10.648 17.5924 10.528 17.2804 10.528 16.8844C10.528 16.5004 10.648 16.1944 10.888 15.9664C11.14 15.7264 11.47 15.6064 11.878 15.6064Z" fill="#111111"/>
</svg>

<svg xmlns="http://www.w3.org/2000/svg" fill="none" viewBox="0 0 24 24">
    <circle cx="12" cy="12" r="11" stroke="currentColor" stroke-width="2" fill="transparent"/>
    <path fill="currentColor" d="M12.1 5.94c1.24 0 2.24.28 3 .83.77.54 1.15 1.3 1.15 2.28 0 1.02-.31 1.81-.93 2.36a4.3 4.3 0 01-2.47 1l-.05 1.81h-1.84l-.04-2.72a6.1 6.1 0 002.52-.72c.5-.35.76-.83.76-1.46 0-.52-.2-.94-.58-1.24-.37-.3-.92-.45-1.65-.45-.72 0-1.3.2-1.75.6-.44.4-.7.94-.77 1.65l-1.78-.84c.19-.94.66-1.69 1.42-2.25a4.96 4.96 0 013-.85zm-.22 9.67c.4 0 .73.12.97.36.24.22.36.53.36.91 0 .4-.12.71-.36.94-.24.23-.56.34-.97.34-.42 0-.75-.11-1-.34a1.23 1.23 0 01-.35-.94c0-.38.12-.69.36-.91.25-.24.58-.36.99-.36z" />
</svg>
